X: 26
T: Maple Leaf Rag
C: Scott Joplin
%%abc-version 2.0
%%abcx-abcm2ps-target-version 5.9.1 (29 Sep 2008)
%%abc-creator hum2abc beta
%%abcx-conversion-date 2021/07/20 09:00:57
%%abc-copyright Copyright 2004 by Craig Stuart Sapp
%%abc-edited-by Craig Stuart Sapp
%%abc-edited-by Craig Stuart Sapp
%%abcx-initial-encoding-date 2004/06/08
%%humdrum-veritas 2207954167
%%humdrum-veritas-data 2095993637
%%removed 0's from note length
%%linebreak <none>
%%barnumbers 0
L: 1/8
M: 2/4
N: Derived from mapleleaf.krn
Q: "Trio" 1/4=100
%%staves {1 2}
V: 1 clef=treble
V: 2 clef=bass
K: Ab
[V:1] z [I:setbarnb 1]]|:  
[V:2] [E,E,,] ]|:  
[V:1] z/ A/[e/E/]A/ c/[eE]G/ | 
[V:2] [A,A,,][CA,E,] [CA,E,][=A,=A,,] | 
[V:1] [e/E/]G/B/[e/E/]-[e2E2] | 
[V:2] [B,B,,][DG,E,] [DG,E,][E,E,,] | 
[V:1] z/ A/[e/E/]A/ c/[eE]G/ | 
[V:2] [A,A,,][CA,E,] [CA,E,][=A,=A,,] | 
[V:1] [e/E/]G/B/[e/E/]- [eE]z/[e/E/] | 
[V:2] [B,B,,][DG,E,] [DG,E,][E,E,,] | 
[V:1] z/ A/_c/[_f/_F/] z/ [e/E/] z/ [e/E/] | 
[V:2] [_F,2_F,,2][E,E,,][E,E,,] | 
[V:1] z/ A/_c/[_f/_F/] z/ [e/E/] z | 
[V:2] [_F,2_F,,2][E,E,,] z | 
[V:1] x4 | 
[V:2] z/ A,,/_C,/A,/ z/ A,/_C/A/ & A,,, z A,, z | 
[V:1] z/ A/_c/a/ z/ a/_c'/a'/ | 
[V:2] A, z A z[K:clef=treble] | 
[V:1] [a'a][a'a] [a'a][a'/a/][a'/a/]- | 
[V:2] [=BAF=D][BAFD] [BAFD][BAFD] | 
[V:1] [a'/a/]e'/f'/c'/ e'/[f'a][a/_f/]- | 
[V:2] [cAE][cAE] [cAE][cAE] | 
[V:1] [a/f/]b/[_c'/_f/]a/ b/[=c'e]a/ | 
[V:2] [_cA_F][cAF] [=cAE][cAE] | 
[V:1] [c'/e/]a/[be] [ae]z/[a/A/]- | 
[V:2] [cAE][dGE] [cA] z[K:clef=bass] | 
[V:1] [aA][aA] [aA][a/A/][a/A/]- | 
[V:2] [=B,A,F,=D,][B,A,F,D,] [B,A,F,D,][B,A,F,D,] | 
[V:1] [a/A/]e/[f/A/]c/ e/[fA][A/_F/]- | 
[V:2] [CA,E,][CA,E,] [CA,E,][CA,E,] | 
[V:1] [A/F/]B/[_c/_F/]A/ B/[=cE]A/ |[1 
[V:2] [_CA,_F,][CA,F,] [=CA,E,][CA,E,] | 
[V:1] [c/E/]A/[BE] [AE] z :|][2 
[V:2] [CA,E,][DG,E,] [CA,][E,E,,] :|]  
[V:1] [c/E/]A/[BE] [AE] z ]|: 
[V:2] [CA,E,][DG,E,] [CA,][=A,=A,,] ]|:  
[V:1] z/ g/[e'/e/]g/ b/[=d'=d]g/ | 
[V:2] [B,B,,][DG,E,] [E,E,,][DG,E,] | 
[V:1] [_d'/_d/]g/b/[c'/c/]- [c'/c/]e/[b/B/]e/ | 
[V:2] [B,B,,][DG,E,] [E,E,,][G,G,,] | 
[V:1] z/ c/[a/A/]c/ e/[fF]c/ | 
[V:2] [A,A,,][CA,E,] [E,E,,][CA,E,] | 
[V:1] [a/A/]c/e/[f/F/]- [f/F/]c/[fF] | 
[V:2] [A,A,,][CA,E,] [A,A,,][=A,=A,,] | 
[V:1] z/ e/[g/G/]B/ d/[fF]e/ | 
[V:2] [B,B,,][DG,E,] [E,E,,][DG,E,] | 
[V:1] [g/G/]B/d/[f/F/]- [f/F/]d/[fF] | 
[V:2] [B,B,,][DG,E,] [B,B,,][=B,=B,,] | 
[V:1] z/ c/[a/A/]c/ e/[fF]c/ | 
[V:2] [CC,][CA,E,] [E,E,,][CA,E,] | 
[V:1] [a/A/]c/e/[f/F/]- [f/F/]c/[fF] | 
[V:2] [A,A,,][CA,E,] [A,A,,][=A,=A,,] | 
[V:1] z/ g/[e'/e/]g/ b/[=d'=d]g/ | 
[V:2] [B,B,,][DG,E,] [E,E,,][DG,E,] | 
[V:1] [_d'/_d/]g/b/[c'/c/]- [c'/c/]e/[b/B/]e/ | 
[V:2] [B,B,,][DG,E,] [E,E,,][G,G,,] | 
[V:1] z/ c/[a/A/]c/ e/[fF]c/ | 
[V:2] [A,A,,][CA,E,] [E,E,,][CA,E,] | 
[V:1] [aA][aA] [gG][_g_G] | 
[V:2] [A,A,,][A,A,,] [G,G,,][_G,_G,,] | 
[V:1] z/ F/=A/c/ f/c/A/F/ | 
[V:2] [F,F,,][F,F,,] [=A,=A,,][A,A,,] | 
[V:1] z/ F/B/d/ [fF][dBF] | 
[V:2] [B,B,,][DB,F,] [DB,F,][DB,F,] | 
[V:1] [cAF=D]z/[c/A/F/D/] z/ [B_D]E/ |[1 
[V:2] [B,F,B,,][B,F,B,,] [E,E,,][G,G,,] | 
[V:1] [AC][eE] [eE][eE] :|][2 
[V:2] [A,A,,][CA,E,] [CA,E,][=A,=A,,] :|]  
[V:1] z/ A/c/e/ [aA] z || 
[V:2] [A,A,,][ECA,] [ECA,][E,E,,] ||  
[V:1] z/ A/[e/E/]A/ c/[eE]G/ | 
[V:2] [A,A,,][CA,E,] [CA,E,][=A,=A,,] | 
[V:1] [e/E/]G/B/[e/E/]-[e2E2] | 
[V:2] [B,B,,][DG,E,] [DG,E,][E,E,,] | 
[V:1] z/ A/[e/E/]A/ c/[eE]G/ | 
[V:2] [A,A,,][CA,E,] [CA,E,][=A,=A,,] | 
[V:1] [e/E/]G/B/[e/E/]- [eE]z/[e/E/] | 
[V:2] [B,B,,][DG,E,] [DG,E,][E,E,,] | 
[V:1] z/ A/_c/[_f/_F/] z/ [e/E/] z/ [e/E/] | 
[V:2] [_F,2_F,,2][E,E,,][E,E,,] | 
[V:1] z/ A/_c/[_f/_F/] z/ [e/E/] z | 
[V:2] [_F,2_F,,2][E,E,,] z | 
[V:1] x4 | 
[V:2] z/ A,,/_C,/A,/ z/ A,/_C/A/ & A,,, z A,, z | 
[V:1] z/ A/_c/a/ z/ a/_c'/a'/ | 
[V:2] A, z A z[K:clef=treble] | 
[V:1] [a'a][a'a] [a'a][a'/a/][a'/a/]- | 
[V:2] [=BAF=D][BAFD] [BAFD][BAFD] | 
[V:1] [a'/a/]e'/[f'/a/]c'/ e'/[f'a][a/_f/]- | 
[V:2] [cAE][cAE] [cAE][cAE] | 
[V:1] [a/f/]b/[_c'/_f/]a/ b/[=c'e]a/ | 
[V:2] [_cA_F][cAF] [=cAE][cAE] | 
[V:1] [c'/e/]a/[be] [ae]z/[a/A/]- | 
[V:2] [cAE][dGE][c2A2E2][K:clef=bass] | 
[V:1] [aA][aA] [aA][a/A/][a/A/]- | 
[V:2] [=B,A,F,=D,][B,A,F,D,] [B,A,F,D,][B,A,F,D,] | 
[V:1] [a/A/]e/[f/A/]c/ e/[fA][A/_F/]- | 
[V:2] [CA,E,][CA,E,] [CA,E,][CA,E,] | 
[V:1] [A/F/]B/[_c/_F/]A/ B/[=cE]A/ | 
[V:2] [_CA,_F,][CA,F,] [=CA,E,][CA,E,] | 
[V:1] [c/E/]A/[BE] [AE][aA] ]|:  
[V:2] [CA,E,][DG,E,] [CA,] z ]|:  
[V:1]  [K:Db] [M:2/4][aecA]>[aecB]- [a/e/c/B/][e/c/]B | 
[V:2]  [K:Db] [M:2/4][E,E,,][GCA,] [G,G,,][GCA,] | 
[V:1] [aecA]>[aecB]- [a/e/c/B/][e/c/]B/[e/c/] | 
[V:2] [F,F,,][GCA,] [E,E,,][C,C,,] | 
[V:1] A/d/B/d/ f/A/d/f/ | 
[V:2] [D,D,,][FDA,] [A,A,,][FDA,] | 
[V:1] B/d/f/A/- A/f/B/f/ | 
[V:2] [F,F,,][FDA,] [D,D,,][=D,=D,,] | 
[V:1] [aecA]>[aecB]- [a/e/c/B/][e/c/]B | 
[V:2] [E,E,,][GCA,] [G,G,,][GCA,] | 
[V:1] [aecA]>[aecB]- [a/e/c/B/][e/c/]B/[e/c/] | 
[V:2] [F,F,,][GCA,] [E,E,,][C,C,,] | 
[V:1] A/d/B/d/ f/A/d/f/ | 
[V:2] [D,D,,][FDA,] [A,A,,][FDA,] | 
[V:1] B/d/f/A/- A/f/=A/[f/e/] | 
[V:2] [F,F,,][FDA,] [D,D,,][C,C,,] | 
[V:1] [bf=dB]>[bfdc]- [b/f/d/c/][f/d/]c | 
[V:2] [B,,B,,,][A=DB,] [=D,=D,,][ADB,] | 
[V:1] [bf=dB]>[bfdc]- [b/f/d/c/][f/d/]c/[f/d/] | 
[V:2] [F,F,,][A=DB,] [B,B,,][ADB,] | 
[V:1] z/ e/[b/B/]e/ g/[c'c]e/ | 
[V:2] [E,E,,][GEB,] [G,G,,][GEB,] | 
[V:1] [b/B/]e/g/[c'/c/]- [c'/c/]e/[bB] | 
[V:2] [E,E,,][GEB,] [G,G,,][GEB,] | 
[V:1] [d'_fd][d'fd] [c'fc][bfB] | 
[V:2] =G,/B,D/ _F/D/B,/=G,/ | 
[V:1] [=f/A/]d/e/[g/B/]- [g/B/]B/[fA] | 
[V:2] [A,A,,][=FDA,] B,,[=DB,A,] | 
[V:1] [f/=G/]d/e/[f/_G/]- [f/G/]c/[e/G/][d/F/]- |[1 
[V:2] [_DB,E,][DB,E,] [CA,][CA,] | 
[V:1] [d/F/][aA]f/ [a/A/]f/[a/A/]f/ :|][2 
[V:2] [DD,][FDA,] [FDA,][=D,=D,,] :|]  
[V:1] [d/F/]d/f/a/ [d'd] z || 
[V:2] [DD,][A,A,,] [D,D,,][CC,] ||  
[V:1]  [K:Ab] [aA][fA] [aA][fA] | 
[V:2]  [K:Ab] [DD,][FDA,] [FDA,][CC,] | 
[V:1] [af][b/f/][c'/f/]- [c'/f/]b/a/f/ | 
[V:2] [DD,][FDA,] [B,B,,][=B,=B,,] | 
[V:1] e/f[c/A/]-[c2A2] | 
[V:2] [CC,][ECA,] [ECA,][E,E,,] | 
[V:1] z/ e/[f/A/]c/ e/[fA]c/ | 
[V:2] [A,A,,][CA,E,] [E,E,,][=A,=A,,] | 
[V:1] [eG]f/[B/G/]-[B2G2] | 
[V:2] [B,B,,][DG,E,] [E,E,,][=A,=A,,] | 
[V:1] z/ d/[f/G/]B/ d/[fG][c/A/]- | 
[V:2] [B,B,,][DG,E,] [E,E,,][G,G,,] | 
[V:1] [c/A/]e/[f/A/]c/ e/[fA][c/A/]- | 
[V:2] [A,A,,][CA,E,] [E,E,,][CA,E,] | 
[V:1] [c/A/]e/[f/A/]c/ e/[fA]e/ | 
[V:2] [A,A,,][CA,E,] [B,B,,][CC,] | 
[V:1] [aA][fA] [aA][fA] | 
[V:2] [DD,][FDA,] [FDA,][CC,] | 
[V:1] [af][b/f/][c'/f/]- [c'/f/]b/a/f/ | 
[V:2] [DD,][FDA,] [B,B,,][=B,=B,,] | 
[V:1] af e/a[c/A/]- | 
[V:2] [CC,][ECA,] [ECA,][E,E,,] | 
[V:1] [c/A/]e/[f/A/]c/ e/[fA][A/F/]- | 
[V:2] [A,A,,][CA,E,] [E,E,,][CA,E,] | 
[V:1] [A/F/]B/[AF] [A_F][B/F/][A/E/]- | 
[V:2] [D,D,,][D,D,,] [B,,B,,,][=D,=D,,] | 
[V:1] [A/E/]B/[c/E/]A/ B/[cE][A/=D/]- | 
[V:2] [E,E,,][CA,E,] [E,E,,][=E,=E,,] | 
[V:1] [A/=D/]B/[c/=D/]A/ z/ [B_D]E/ |[1 
[V:2] [F,F,,][F,F,,] [G,G,,][G,G,,] | 
[V:1] [AC][eE] [eE][eE] :|][2 
[V:2] [A,A,,][CA,E,] [B,B,,][CC,] :|]  
[V:1] [AC][edG] [aecA] |]  
[V:2] [A,A,,][E,E,,] [A,,A,,,] |]  


